storage/app/icons/phosphoricons/fill/city-fill.svg

<svg xmlns="http://www.w3.org/2000/svg" fill="currentColor" viewBox="0 0 256 256"><path d="M240 208h-8V88a8 8 0 0 0-8-8h-64a8 8 0 0 0-8 8v40h-48V40a8 8 0 0 0-8-8H32a8 8 0 0 0-8 8v168h-8a8 8 0 0 0 0 16h224a8 8 0 0 0 0-16M72 184a8 8 0 0 1-16 0v-16a8 8 0 0 1 16 0Zm0-48a8 8 0 0 1-16 0v-16a8 8 0 0 1 16 0Zm0-48a8 8 0 0 1-16 0V72a8 8 0 0 1 16 0Zm64 96a8 8 0 0 1-16 0v-16a8 8 0 0 1 16 0Zm64 0a8 8 0 0 1-16 0v-16a8 8 0 0 1 16 0Zm0-48a8 8 0 0 1-16 0v-16a8 8 0 0 1 16 0Z"/></svg>

<svg xmlns="http://www.w3.org/2000/svg" viewBox="0 0 256 256" fill="currentColor"><path d="M240,208h-8V88a8,8,0,0,0-8-8H160a8,8,0,0,0-8,8v40H104V40a8,8,0,0,0-8-8H32a8,8,0,0,0-8,8V208H16a8,8,0,0,0,0,16H240a8,8,0,0,0,0-16ZM72,184a8,8,0,0,1-16,0V168a8,8,0,0,1,16,0Zm0-48a8,8,0,0,1-16,0V120a8,8,0,0,1,16,0Zm0-48a8,8,0,0,1-16,0V72a8,8,0,0,1,16,0Zm64,96a8,8,0,0,1-16,0V168a8,8,0,0,1,16,0Zm64,0a8,8,0,0,1-16,0V168a8,8,0,0,1,16,0Zm0-48a8,8,0,0,1-16,0V120a8,8,0,0,1,16,0Z"/></svg>
